X:1
T:Cold, Haily, Windy Night
M:4/4
L:1/8
K:D
FE|(DB,) B,A, B,2(B,C)|D3E (FE)ED|E2EF E3F|
w:Oh, my hat_ it is fro-zen_ to my head_ And my feet thay are like a
B3A F2zE|(DB,)B,A, B,2(B,C)|D3E (FE) (ED)|E2(dB) A2(ED)|
w:lump of lead My shoes_ they are fro-zen_ to my feet_With_ stand-ing_ at your
E2(F2F)(G/2F/2 E2)|(D B,2)A, B,2zF|B3c(B F3)|(A3F) (AF E2)|
w:win-dow_ Oh__ let_ me in the sol-dier cried_ Cold_ haily__ 
F3B (AF) (EF)|(DB,)(B,A,) B,3F|B3c d2cB|A2F2E3D|(EF) F4z2|]
w:wind-y night_Oh_ let_ me_ in the sol-dier cried For I'll not go back ag-ain,_ o